newicons/healthy_cities.svg

<?xml version="1.0" encoding="UTF-8" standalone="no"?>
<svg
   xml:space="preserve"
   x="0%"
   y="0%"
   viewBox="0 0 48 48"
   version="1.1"
   id="svg8"
   sodipodi:docname="healthycities.svg"
   inkscape:version="1.1.2 (0a00cf5339, 2022-02-04)"
   xmlns:inkscape="http://www.inkscape.org/namespaces/inkscape"
   xmlns:sodipodi="http://sodipodi.sourceforge.net/DTD/sodipodi-0.dtd"
   xmlns="http://www.w3.org/2000/svg"
   xmlns:svg="http://www.w3.org/2000/svg"><defs
     id="defs12" /><sodipodi:namedview
     id="namedview10"
     pagecolor="#ffffff"
     bordercolor="#666666"
     borderopacity="1.0"
     inkscape:pageshadow="2"
     inkscape:pageopacity="0.0"
     inkscape:pagecheckerboard="0"
     showgrid="false"
     inkscape:zoom="16.1875"
     inkscape:cx="24"
     inkscape:cy="24"
     inkscape:window-width="1644"
     inkscape:window-height="1057"
     inkscape:window-x="36"
     inkscape:window-y="30"
     inkscape:window-maximized="1"
     inkscape:current-layer="svg8" /><path
     fill="none"
     stroke="#000000"
     stroke-linecap="round"
     stroke-linejoin="round"
     stroke-width=".721"
     d="m 29.240498,13.867223 10.296645,0.09328 M 6.8047749,35.964778 C 19.596869,43.474449 16.495049,31.81347 38.67423,39.369785 18.384126,26.367793 21.532591,36.652776 6.8864018,35.929795 a 21.013084,21.013084 0 1 0 0.023322,-23.893346"
     id="path2"
     style="stroke-width:1;stroke-miterlimit:4;stroke-dasharray:none;stroke:#ffffff;stroke-opacity:1" /><path
     fill="none"
     stroke="#000000"
     stroke-linecap="round"
     stroke-linejoin="round"
     stroke-width=".721"
     d="m 19.235379,39.031615 2.262229,-2.075653 -2.518771,-1.352674 m 5.352389,3.486633 3.568259,-2.297213 -3.521615,-2.168942 M 14.232818,35.043561 V 19.67439 L 11.049372,16.141115 7.8542631,19.67439 v 15.928898"
     id="path4"
     style="stroke-width:1;stroke-miterlimit:4;stroke-dasharray:none;stroke:#ffffff;stroke-opacity:1" /><path
     fill="none"
     stroke="#000000"
     stroke-linecap="round"
     stroke-linejoin="round"
     stroke-width=".721"
     d="M 20.436459,32.594756 V 6.7773489 l -6.879977,5.8538111 -0.01166,6.168657 M 32.00415,35.14851 V 21.680079 H 24.37787 V 32.594756 M 30.418258,13.867223 V 21.57513 M 38.67423,39.369785 V 13.960512"
     id="path6"
     style="stroke-width:1;stroke-miterlimit:4;stroke-dasharray:none;stroke:#ffffff;stroke-opacity:1" /></svg>

<svg xmlns="http://www.w3.org/2000/svg" xml:space="preserve" x="0%" y="0%" viewBox="0 0 48 48"><path fill="none" stroke="#000" stroke-linecap="round" stroke-linejoin="round" stroke-width=".721" d="m29.24 13.867 10.297.094M6.805 35.965c12.792 7.51 9.69-4.152 31.87 3.405-20.29-13.002-17.142-2.717-31.789-3.44a21.013 21.013 0 1 0 .024-23.894" style="stroke-width:1;stroke-miterlimit:4;stroke-dasharray:none;stroke:#fff;stroke-opacity:1"/><path fill="none" stroke="#000" stroke-linecap="round" stroke-linejoin="round" stroke-width=".721" d="m19.235 39.032 2.263-2.076-2.52-1.353m5.353 3.487 3.568-2.297-3.521-2.17m-10.145.42V19.675l-3.184-3.533-3.195 3.533v15.93" style="stroke-width:1;stroke-miterlimit:4;stroke-dasharray:none;stroke:#fff;stroke-opacity:1"/><path fill="none" stroke="#000" stroke-linecap="round" stroke-linejoin="round" stroke-width=".721" d="M20.436 32.595V6.777l-6.88 5.854-.011 6.169m18.46 16.349V21.68h-7.627v10.915m6.04-18.728v7.708m8.256 17.795V13.96" style="stroke-width:1;stroke-miterlimit:4;stroke-dasharray:none;stroke:#fff;stroke-opacity:1"/></svg>
